X:1
T:茉莉花
C:江苏民歌/李春华编曲
M:4/4
L:1/4
K:C
E/z/E/G/A/c/c/A/|G/z/G/A/G/z/z|
E/z/E/G/A/c/c/A/|G/z/G/A/G/z/z|
G/z/G/z/G/z/E/G/|A/z/A/z/G/z/z|
E/z/D/E/G/A/E/D/|C/z/C/D/C/z/C/z/|
E/D/C/E/D3/2E/|GA/c/G2|
DE/G/D/E/C/A,/|z4|
d3/2c/c/d/c/A/|G3z|
EE/G/A/c/c/A/|GG/A/G2|
EE/G/A/c/c/A/|GG/A/G2|
GGGE/G/|AAG2|
ED/E/GE/D/|CC/D/C2|
E/D/C/E/D3/2E/|GA/c/G2|
DE/G/dc/A/|G2Ac|
d3/2c/c/d/c/A/|G4|

